!!!ONB: MCCC : IGH0460_02 : Extracted Monophonic Melody
!!!COM: Handel, George Frideric
!!!OPR: Suite No.1 in A major
!!!OMV: 2
!!!SCT: HWV 426
!!!ODT: 1720///
**kern
*staff1
*clefG2
*k[f#c#g#]
*A:
*M4/4
16e
64f#
64e
16f#
32g#
8a
8dd
16cc#
16aa
64aa
64gg#
64aa
64gg#
16ff#
16ee[
16ee]
8dd
=2
8r
16r
16b
32b
64a
64b
64a
64b
32a
16a
16b
16a
16g#
16a
16b
16e
16a
16b
16cc#
=3
16f#
16dd
16ee
16ff#
32ee
64dd
64ee
64dd
64ee
32dd[
16dd]
16cc#
4.cc#
16b
16b
=4
16b
16cc#
16a
16b
32a
64g#
64a
64g#
64a
32g#
16a#
16b
4a#
8r
16ee
16cc#
=5
64dd
64cc#
16.dd
16cc#
16b
32b
64a
64b
64a
64b
32a
32a[
32a]
32a
32b
8.g#
16a
16b
16b
16cc#
16dd
=6
4.cc#
16dd#
16ee
32ee
64dd#
64ee
64dd#
32.ee
8dd#
16r
16bb
16aa
16ff#
=7
16gg[
16gg]
8ff#
4r
16ee
16dd#
16cc#
16b
4ee[
=8
16ee]
16ee
32ee
64dd#
64ee
32dd#
32cc#
16dd#
16a
16g#[
16g#]
16dd#
16g#
16cc#[
16cc#]
16cc#
16dd#
16b[
16b]
=9
16b
16cc#
8a[
16a]
16b
16g#[
16g#]
16c#
16f#
16g#
16a
16d#
16g#
16a
16b
=10
16e
16cc#
16dd#
16ee
16f#
16ee
16dd#
16cc#
8b
16a
16g#
8g#
64g#
64f#
64g#
64f#
16e
=11
4e
16r
16c#
16a
16d#
8G#
8B
4r
=12
2r
16r
16aa
64aa
64gg#
64aa
64gg#
16ff#
16ee[
16ee]
8dd
=13
8r
16r
16b
32b
64a
64b
64a
64b
32a
16a
16b
16a
16g#
16a
16b
16e
16a
16b
16cc#
=14
16f#
16dd
16ee
16ff#
32ee
64dd
64ee
64dd
64ee
32dd[
16dd]
16cc#
4.cc#
16b
16b
=15
16b
16cc#
16a
16b
32a
64g#
64a
64g#
64a
32g#
16a#
16b
4a#
8r
16ee
16cc#
=16
64dd
64cc#
16.dd
16cc#
16b
32b
64a
64b
64a
64b
32a
32a[
32a]
32a
32b
8.g#
16a
16b
16b
16cc#
16dd
=17
4.cc#
16dd#
16ee
32ee
64dd#
64ee
64dd#
32.ee
8dd#
16r
16bb
16aa
16ff#
=18
16gg[
16gg]
8ff#
4r
16ee
16dd#
16cc#
16b
4ee[
=19
16ee]
16ee
32ee
64dd#
64ee
32dd#
32cc#
16dd#
16a
16g#[
16g#]
16dd#
16g#
16cc#[
16cc#]
16cc#
16dd#
16b[
16b]
=20
16b
16cc#
8a[
16a]
16b
16g#[
16g#]
16c#
16f#
16g#
16a
16d#
16g#
16a
16b
=21
16e
16cc#
16dd#
16ee
16f#
16ee
16dd#
16cc#
8b
16a
16g#
8g#
64g#
64f#
64g#
64f#
16e
=22
4e
16r
16c#
16a
16d#
8G#
8B
4r
=23
1r
=24
8r
16b
16cc#
8dd
64dd
64cc#
32dd
16cc#
4dd
16r
16ff#
16ee
16cc#
=25
16dd
16dd
16cc#
16dd
8.b
16b
16ff#
16a#
16b
16cc#
16f#
16ff#
16ee
16dd
=26
16ee
16cc#
16dd
16ee
16dd
16dd
16cc#[
16cc#]
16b
16b
16b[
16b]
16B
16e
16f#
16g#
=27
16c#
16f#
16g#
16a
16d#
16g#
16a
16b
16e
16a
16b
16cc#
16f#
16cc#
16b
16a
=28
16g#
16b
16cc#
16dd#
16cc#
16dd#
32ee
64dd#
64ee
32dd#
64cc#
64dd#
16ee
16ee
16ee[
16ee]
16e
16a
16b
16cc#
=29
16f#
16b
16cc#
16dd
16g#
16cc#
16dd
16ee
16a
16dd
16ee
16ff#
16b
16ff#
16ee
16dd
=30
16cc#
16ee
16aa
16aa
16aa
16aa
16gg#
16gg#
16gg#
16gg#
16ff#
16ff#
16ff#
16ff#
16ee
16ee
=31
16ee
16ee
16dd
16dd
16dd
16dd
16cc#[
16cc#]
16f#
16b
16cc#
16dd
16g#
16cc#
16dd
16ee
=32
16a
16ff#
16gg#
16aa
16b
16aa
16gg#
16ff#
8ee
16dd
16cc#
8cc#
64cc#
64b
64cc#
64b
16a
=33
4a
16r
16f#
16dd
16g#
16e
8.a
16r
16b
64cc#
64b
16cc#
32dd#
=34
8ee
16f#
16g#
32a
64g#
64a
64g#
64a
32g#[
16g#]
32f#
32g#
4a
16r
16ee
16ff#
16gg
=35
16aa[
16aa]
16b
16cc#
8dd
64dd
64cc#
32dd
16cc#
4dd
16r
16ff#
16ee
16cc#
=36
16dd
16dd
16cc#
16dd
8.b
16b
16ff#
16a#
16b
16cc#
16f#
16ff#
16ee
16dd
=37
16ee
16cc#
16dd
16ee
16dd
16dd
16cc#[
16cc#]
16b
16b
16b[
16b]
16B
16e
16f#
16g#
=38
16c#
16f#
16g#
16a
16d#
16g#
16a
16b
16e
16a
16b
16cc#
16f#
16cc#
16b
16a
=39
16g#
16b
16cc#
16dd#
16cc#
16dd#
32ee
64dd#
64ee
32dd#
64cc#
64dd#
16ee
16ee
16ee[
16ee]
16e
16a
16b
16cc#
=40
16f#
16b
16cc#
16dd
16g#
16cc#
16dd
16ee
16a
16dd
16ee
16ff#
16b
16ff#
16ee
16dd
=41
16cc#
16ee
16aa
16aa
16aa
16aa
16gg#
16gg#
16gg#
16gg#
16ff#
16ff#
16ff#
16ff#
16ee
16ee
=42
16ee
16ee
16dd
16dd
16dd
16dd
16cc#[
16cc#]
16f#
16b
16cc#
16dd
16g#
16cc#
16dd
16ee
=43
16a
16ff#
16gg#
16aa
16b
16aa
16gg#
16ff#
8ee
16dd
16cc#
8cc#
64cc#
64b
64cc#
64b
16a
=44
4a
16r
16f#
16dd
16g#
4e
4r
==
*-
